
lsystem Koch {
axiom: X--X--X
rules: X->F+F--F+F;
	F -> 
    	encap(lsystem Sierpinski {
		axiom: F--F--F
		rules: 
			F -> F[--F--F]F;
			
		angle: 120
		step: 5
		iterations: 3
		});
angle: 60
step: 5
iterations: 3
}
